X: 32823
T: Pope's Toe, The
R: reel
M: 4/4
K: Amajor
c/B/A eA fAeA|c/B/A ec ~B3d|c/B/A eA fAec|dfec A2 AB|
c/B/A aA gAfA|c/B/A ec ~B3d|ce e/e/e defa|gabg ae e/e/e||
a2 ec Ac c/c/c|Acec dB B/B/B|a2 ec Acec|dfed cA A/A/A|
afec Ac c/c/c|Acec dB B/B/B|eaaf e/f/e ce|dfed cAAB||

